X:0705
T:Lady Mary Menzies' Reel
P:Lady Mary Menzies' Reel
C:Bremner 1761
R:Reel (8x32)
B:RSCDS 7-5
Z:Anselm Lingnau <anselm@strathspey.org>
M:C|
L:1/8
K:F
f|"F"cFAF cF"Bb"fd|"F"cFAF "Gm"dG"C7"GA|\
  "F"cFAF cF"C7"ag|"Dm"fd"Am"cA "F"cF F f|
  "F"cFAF cF"Bb"fd|"F"cFAF "Gm"dG"C7"GA|\
  "F"cFAF cF"C7"ag|"Dm"fd"Am"cA "F"cF F||
e|"F"fcce fg"C"ag|"Dm"fd"Am"cA "Gm"gdde|\
  "Dm"fdcA f/e/f/g/ "C7"ag|"Dm"fdcA "F"cFF e|
  "F"fcce fg"C"ag|"Dm"fd"Am"cA "Gm"gdde|\
  "Dm"fdcA f/e/f/g/ "C7"ag|"Dm"fdcA "F"cFF|]

